docs/assets/images/components/infinite-scroll.svg

<?xml version="1.0" encoding="UTF-8"?>
<svg width="44px" height="55px" viewBox="0 0 44 55" version="1.1" xmlns="http://www.w3.org/2000/svg" xmlns:xlink="http://www.w3.org/1999/xlink">
    <!-- Generator: sketchtool 50.2 (55047) - http://www.bohemiancoding.com/sketch -->
    <title>723B61EE-8CCA-4B08-B6F3-0F08A814E117</title>
    <desc>Created with sketchtool.</desc>
    <defs>
        <polygon id="path-1" points="0.289 0.104 12.375 0.104 12.375 54.9995 0.289 54.9995"></polygon>
        <polygon id="path-3" points="0 55 43.375 55 43.375 0.104 0 0.104"></polygon>
    </defs>
    <g id="Page-1" stroke="none" stroke-width="1" fill="none" fill-rule="evenodd">
        <g id="icon-source" transform="translate(-508.000000, -855.000000)">
            <g id="Group" transform="translate(87.000000, 66.000000)">
                <g id="Group-6-Copy-3" transform="translate(0.000000, 587.000000)">
                    <g id="Group-3-Copy-2" transform="translate(188.000000, 197.000000)">
                        <g id="infinitescroll" transform="translate(223.000000, 0.000000)">
                            <rect id="Background" x="0" y="0" width="64" height="64"></rect>
                            <g id="Page-1" transform="translate(10.000000, 4.000000)">
                                <polygon id="Fill-1" fill="#CADEFF" points="33.289 53.8965 41.375 53.8965 41.375 3.0005 33.289 3.0005"></polygon>
                                <g id="Group-14" transform="translate(0.000000, 0.896500)">
                                    <polygon id="Fill-2" fill="#FFFFFF" opacity="0.699388587" points="33.289 3.311 41.375 3.311 41.375 50.629 33.289 50.629"></polygon>
                                    <g id="Group-6" transform="translate(31.000000, 0.000000)">
                                        <mask id="mask-2" fill="white">
                                            <use xlink:href="#path-1"></use>
                                        </mask>
                                        <g id="Clip-5"></g>
                                        <path d="M10.375,0.1035 L2.289,0.1035 C1.185,0.1035 0.289,0.9995 0.289,2.1035 L0.289,52.9995 C0.289,54.1045 1.185,54.9995 2.289,54.9995 L10.375,54.9995 C11.479,54.9995 12.375,54.1045 12.375,52.9995 L12.375,2.1035 C12.375,0.9995 11.479,0.1035 10.375,0.1035 Z M2.289,52.9995 L10.375,52.9995 L10.375,2.1035 L2.289,2.1035 L2.289,52.9995 Z" id="Fill-4" fill="#457AE6" mask="url(#mask-2)"></path>
                                    </g>
                                    <mask id="mask-4" fill="white">
                                        <use xlink:href="#path-3"></use>
                                    </mask>
                                    <g id="Clip-8"></g>
                                    <polygon id="Fill-7" fill="#6DA3F2" mask="url(#mask-4)" points="33.289 36.325 41.375 36.325 41.375 7.623 33.289 7.623"></polygon>
                                    <polygon id="Fill-9" fill="#97BDFF" mask="url(#mask-4)" points="34.908 33.853 39.802 33.853 39.802 7.624 34.908 7.624"></polygon>
                                    <path d="M41.375,5.623 L33.289,5.623 C32.185,5.623 31.289,6.519 31.289,7.623 L31.289,36.325 C31.289,37.43 32.185,38.325 33.289,38.325 L41.375,38.325 C42.479,38.325 43.375,37.43 43.375,36.325 L43.375,7.623 C43.375,6.519 42.479,5.623 41.375,5.623 Z M33.289,36.325 L41.375,36.325 L41.375,7.623 L33.289,7.623 L33.289,36.325 Z" id="Fill-10" fill="#457AE6" mask="url(#mask-4)"></path>
                                    <path d="M18.5586,18.8662 L-0.0004,18.8662 L9.0866,9.7792 C9.1936,9.6732 9.3656,9.6732 9.4716,9.7792 L18.5586,18.8662 Z" id="Fill-11" fill="#457AE6" mask="url(#mask-4)"></path>
                                    <path d="M0,32.2373 L18.559,32.2373 L9.472,41.3243 C9.365,41.4303 9.193,41.4303 9.087,41.3243 L0,32.2373 Z" id="Fill-12" fill="#457AE6" mask="url(#mask-4)"></path>
                                    <path d="M16.1045,52.3154 C16.1045,53.6554 13.0485,54.7424 9.2795,54.7424 C5.5095,54.7424 2.4545,53.6554 2.4545,52.3154 C2.4545,50.9744 5.5095,49.8874 9.2795,49.8874 C13.0485,49.8874 16.1045,50.9744 16.1045,52.3154" id="Fill-13" fill="#CADEFF" mask="url(#mask-4)"></path>
                                </g>
                            </g>
                        </g>
                    </g>
                </g>
            </g>
        </g>
    </g>
</svg>

<svg width="44" height="55" xmlns="http://www.w3.org/2000/svg" xmlns:xlink="http://www.w3.org/1999/xlink"><defs><path id="a" d="M.289.104h12.086v54.895H.289z"/><path id="c" d="M0 55h43.375V.104H0z"/></defs><g fill="none" fill-rule="evenodd"><path d="M-10-5h64v64h-64z"/><path fill="#CADEFF" d="M33.289 52.897h8.086V2h-8.086z"/><g transform="translate(0 -.104)"><path fill="#FFF" opacity=".699" d="M33.289 3.311h8.086v47.318h-8.086z"/><g transform="translate(31)"><mask id="b" fill="#fff"><use xlink:href="#a"/></mask><path d="M10.375.103H2.289a2 2 0 0 0-2 2V53a2 2 0 0 0 2 2h8.086a2 2 0 0 0 2-2V2.102a2 2 0 0 0-2-2zM2.289 53h8.086V2.102H2.289V53z" fill="#457AE6" mask="url(#b)"/></g><mask id="d" fill="#fff"><use xlink:href="#c"/></mask><path fill="#6DA3F2" mask="url(#d)" d="M33.289 36.325h8.086V7.623h-8.086z"/><path fill="#97BDFF" mask="url(#d)" d="M34.908 33.853h4.894V7.624h-4.894z"/><path d="M41.375 5.623h-8.086a2 2 0 0 0-2 2v28.702a2 2 0 0 0 2 2h8.086a2 2 0 0 0 2-2V7.623a2 2 0 0 0-2-2zm-8.086 30.702h8.086V7.623h-8.086v28.702zM18.559 18.866H-.001L9.088 9.78a.273.273 0 0 1 .385 0l9.087 9.087zM0 32.237h18.559l-9.087 9.087a.273.273 0 0 1-.385 0L0 32.237z" fill="#457AE6" mask="url(#d)"/><path d="M16.105 52.315c0 1.34-3.056 2.427-6.825 2.427-3.77 0-6.825-1.087-6.825-2.427s3.054-2.428 6.825-2.428c3.769 0 6.825 1.087 6.825 2.428" fill="#CADEFF" mask="url(#d)"/></g></g></svg>
